X: 1042
T: The Cook in the Kitchen
R:double jig
N:"collected by Early"
B:O'Neill's 1042
Z:Transcribed by henrik.norbeck@mailbox.swipnet.se
M:6/8
L:1/8
K:G
D|G>DG GAG|FDE F2 A|G>DG GFG|Add cAG|
G>DG GAG|FDE F2 d|cAG FGA|{B}AGG G2:|
A|B>cB BAG|ABA AGF|GAG GFG|Add cAG|
B>cB BAG|ABA A2 d|cAG FGA|{B}AGG G2:|
B|d2 e f2 g|Ta2 g f2 d|cAG FGA|Add cAG|
d2 e f2 g|Ta2 g f2 d|cAG FGA|{B}AGG G2:|


